X:627
T:Fr\"olicher Landmann
T:(The Happy Farmer) Op. 68 no. 10
C:Robert Schumann
O:Germany
B:Schumann: "Album for the young" no. 10
Z:Transcribed by Frank Nordberg - http://www.musicaviva.com
F:http://abc.musicaviva.com/tunes/schumann-robert/schm068-10/schm068-10-pno2.abc
V:1 Program 1 0 up %Piano
V:2 Program 1 0 merge down %Piano
V:3 Program 1 0 bass %Piano
M:4/4
L:1/8
K:F
V:1
z|z [ACF][ACF] z z [cAF][cAF] z|z [dBF][dB] z z [cAF][cAF] z|z [cBE] [c2B2E2] z [AFC] [A2F2C2] |z [GC] z [^BGF] z [cGE][cGE] :: (C|B3 A G3) (C|
V:2
x|x8|x8|x8|x4x2x::x| z [EC][EC] z z [CB,][CB,] z|
V:3
(C,|F,3A, C3) (F,|B,DFD C3) (A,|B,G,C,B, A,F,C,A,|E,2D,2C,2) z::(C,|G,3F, E,3) (C,|
%
V:1
BAGF G3) (C|F3) (A c3) (F|Bdfd c3) z|z [cBE][c2B2E2] z [AFC][AFC][AFC]|z [GD] z [CB,] z [FCA,][FCA,]:|]
V:2
z (CC^B,) z C C z|z [CA,][CA,] z z [AF][AF] z|z [BF] z [BF] z [AF][AF] z|x8|x4 x2 x:|]
V:3
G,F,E,D, E,3) (C,|F,3) (A, C3) (F,|B,DFD C3) (A,|B,G,C,B,) (A,F,C,A,)|([G,2B,,2][E,2C,2]F,2) z:|]
W:
W:
W:  From Musica Viva - http://www.musicaviva.com
W:  the Internet center for free sheet music downloads.
